-----BEGIN PGP SIGNATURE-----

iQEzBAABCgAdFiEEU6uOGDi2cCvB6Dj+XCBT/dvBfjQFAmp6L6oACgkQXCBT/dvB
fjT9Swf+K+x3jqOVImvF2gUQgtrmdHUJwY9DIqUjiSXpm4FwhQJw7MX4BRIPYotE
zs+tqNMfDeqcupZoLBEbE1TIdU4EYCQwY0b/4OmRPnOukLTjJnTlv4umfQ4uxYc6
Jyk+nydhxb1CGrPXI6V5hETMnE7duzwLUOqpcPjcxVOSyL4f6AMJ+uWJ/++KUqxH
DBEZ4JhAAAW+ARHRHfyvO1pTi+2S41o7RxYjNk6JIT451m21qiCX35j2vNu/kqti
BUDvriT7bzdKAUMdm5rX2VmD/oplTnhpqZ+kmQkeWdZdP7ZJRNmT5wMJdPSpUC7m
b/0Qi3E+2vGHiykv+ZintHfLph7cRIkCMwQAAQoAHRYhBFG+YAwnEZJshl35P8fc
wSPw3bhiBQJqei+rAAoJEMfcwSPw3bhiDJ8P/Ak7ZH6SAZ1V7hg2qFv4TGErz8Ze
WZtFLitR7bCfjcB1VtqzmOxGxZsQOul7l9JFEXgMKv4+KB882eZ6/LFyM210Bijk
uhsq4NHFOA/3dZX2S2rpGhISJkiyXnuHflorq98Bp6jKMg/D8+M1g7c2cfrgxxce
G8+5SQZLW6PJXFaadEhdRt/v5DIUVEAp2Yx3M/XRPsOdrACcoAtsxROKmb8wfIxt
lKPYTfwQfbqr9X31gNy3taXlzRoKfhBiJYd+qdzYFdvUeYGmR7qadnEeIaBcqHft
YH19+70IVotvVVqS2YrwtBB2nkmqaTfJt8/ppAw2FdabgbaPXd19mIk9B+uiPrfj
zF6ld6VP2F74VNAaoQEJrBtDX8LH7RRV4QVm6ugkfCu0mW+IglRysjjC3vcH5LKC
OkfeqT5oEs+8L1plI+rNP3TwBVsIMcJVAIwC/pGEI8il5dIiWG7lOT8CNDXzO2nB
u7AM7uWlANKgDX2WvG+/C6RQrQt7zj7S0Ge8vrx4UWYpyJYqfx7ftOfdcz6+bfrn
2LWApDwRSHbI562f6SuziZPAdC4UpHgMJHmHDmPPJnZadaUutCSIkjsHlAkzgbhS
V8dNoUenCHJSSw52U2DXPOOT/jCOtj34HIaE7R8o803jeawfGciaFquJyVu/g8s3
K1EUqtJ8DU6r9onL
=eG39
-----END PGP SIGNATURE-----
