-----BEGIN PGP SIGNATURE-----

iQIzBAABCgAdFiEEIclrHLlQcYh09k29alpnG15Ao7kFAmqtYkoACgkQalpnG15A
o7nONw//d0OdwZnSSv5kQz/ZGBkNQYsT/mvVaBNhxRSOOX14eZTMVGGKgYrKzYAx
DeQhMTHJge5YmQOC94jYJVlCBwvmeNweC9ecw1xLJSwnPaSiUZh9hLE4oXHcK0E2
EvmT0IoZ/g+SfzSofZW7/FaoOuJiZqE45nWGLIdWJrMVHF44zQL0dWlZMblJAZ9F
SlPuNRuxz+joowchoZ1BvT1qjoz0gZER+2uwzwEAFYZZ9UpHvBUovT5vy/kC0oYQ
E52CJ52vXp7D6DnRKWRdLvYLd+VDRjtIO/YBvQqkD8HONhfZTbFJMGahiqB41WcK
h8D0Bp1FlmixzBqeqwMzEZSd72yHkYRWdq0YTDzIqVaz14Fbult5xPmOG1qHp2gQ
3vndTO4ADjygpbNSLWaAR4dbsu5gT2CWw4nwz/gd6KMZlLTvQ+bxuoJW1uQzbJXP
c7f0dGZPzR4Y8eB6ZLYdEUD7JNgVCgutfwSZT7vhcrNkBbdl09/WmeM8bNUhSo9V
OyfFv6fTL3hiucngSvuwNooukk35GQHfqKB6iVWQgUCtgZ6ZFCo/IMfnNOMnT8xu
NyFH6Cd56sHuqnqYyldm0WV8+1hmhYYOh6JKxltq6WCUTuTxh1kX/H7PE9JuRlKF
QRe1fzZ+icWJIokgfDT+63Er7X6H+KiTpun+I99xr+xJTT0xnx4=
=ATaL
-----END PGP SIGNATURE-----
