-----BEGIN PGP SIGNATURE-----

iQIzBAABCgAdFiEE2h0hnhgoqQjSonzI5W2wgceOL+4FAmq+GNMACgkQ5W2wgceO
L+4AHw//bte9xMad/OmcTuUuu9QFj1C35bXPMVXIr/tAzO+Kr1VvmjGhOENadx21
rGf+t7ONqpWjjJ4PLXlMb1WwR6OWxsJSNTcxSK3bbi/e3+ci3uvUmIlDWPTNmX/A
E0V3C72GZ99d3N8Bvlm9jl6dijoxERxeaJhkXfU5OAWl0AD6QEpcRi5wRdgT972J
Fpi+0V4FG5QlH8CGEyU5FWJ5lmpaXqeMasSP0AYQFi36TOyBHfmynR6TAeaDBQQD
qITu74dx0/vvMBX8DQsC+C5nwbuQTz5186pz2VDACjQXbsOJj7T5lq2cT/n2v23X
dd7SoLh/8dCeBsgwi5X3Z2pyid2N4znD0W6lPLYLB8ijJbrvv3bNJQGNa0vhTiES
a4uK4iRK8h9o5mo+NgqJdr6kkZe3OvrQ71nVBvTpQ7Ub2AFlVoMkyoXlEvhhpqCw
nW3hVOwcpUXk5vdhKpmyz53MdGJj8Lx+go+z+Iob1gTAjWK7md9Qxo8KsAA303dX
Q3DS/5mHlw7CA6opG9u190jkMIYh8UGhpLUftg2qKtM8zdHZuRg9Ixul3YoS5+b0
/8oE4HmS0JNVrrLEwHXEcGbDY8mS38QqLpVTYw0H10gRzywyXK+S3sHSy83sxb6c
jZ6U1Hk2SW0iy/RcUx+FFlqcAmPt/Ml3D0DIO0G/WazjYV5KjC8=
=qTyn
-----END PGP SIGNATURE-----
