-----BEGIN PGP SIGNATURE-----

iQJPBAABCAA5FiEEII3TbtW7N0WhZ0Okx8b7tbkcEVUFAmqh8LQbFIAAAAAABAAO
bWFudTIsMi41KzEuMTIsMCwzAAoJEMfG+7W5HBFVmaoP/jFpdM5Hu3y9L2Ev0oY0
sIZP5nSmyhT6QlEC3tiOledCcYuniUJjyv7VGyskmo2br96c7tkZodbXyKtVQtnX
ZFoe5cf5U1WbrSOTOawKiKgaBr80qFfA/ZZi6MXLksS9zjUQrkGYpeWi0mZXWj3n
GQE5bWXcdgzsjD7QhIbZmdKLam2StGY6jnpEDoPdJA9qNrZlsi2OnRsoHD6pF1jm
FHYRJEHxW3RSSavIm6PlO/WMsudWMnUkjqSjGLBnR5gUf2mcyeMhtlP/w3l0hfTc
mCKBS2n/wd9e/ICSIzpcRhEl8pNZ7o5NcM0FAHHc4YYPWa+S/VVPMcE4EXbXpbFK
IcD8zgT49i0vqylpnAXQ6qSNkoeDZjZbv2a8dw4bRWI+ODyTluKWxIt03KYGs1JE
qx8oTnc85ZkSOw74Z9zqj8sF321WLb5tb1IDA92+k2+S6BsR8YmA2U90yECRm02x
7VX52jcL0SoKxryRfbwvke4XPxE1Ujb86NoO++dxPm5oiBlSvIEtapKlJ4sRlSSH
+T85gTzhFH+i+CFONFn6p8G5nUutwSccjjq4qBalwwHpcua/KBsL+WG0p04OOGhD
YjF2AsZ7ZWFUQzaMEOVAakWxWVeIfU+IAuY7MqvqJQzL6httA30acS2vaO6v58mG
VtrrARZ9vvks5ffgzk6V/3Yx
=0iVN
-----END PGP SIGNATURE-----
