-----BEGIN PGP SIGNATURE-----

iQJPBAABCAA5FiEEII3TbtW7N0WhZ0Okx8b7tbkcEVUFAmqh8LcbFIAAAAAABAAO
bWFudTIsMi41KzEuMTIsMCwzAAoJEMfG+7W5HBFVTb0P/1yZ+Mx5TXrDG97MbpEH
RazwORsN8f73YyyRs+AE+lCEumam4ymAqOMqb44HDfFXd2yhgFjng3Xu6LTdKBQy
JeXas33f+c4J83MamQP7HrafTHrJwG1O4lFp2c+OerghUZPg2c7hFHxR0HEM/6zo
3t5ynUuo+meuQH7O5GOZ058LfpH2ffGPn58Rd/zHdvAzpMI4SdOA4b3fviuzBJ8G
zGgl62LNfLycf9LNZ9nm9uREM3V7G59MyQEJfti5bufOWrHr6O7elq22n5QKirWj
LsIHJG+sBxONmvVQK2CzCkUOO4ZaD0b00vtwlSXvWl8WSSXAN9kw3N25TNT1DCSY
G5DUjNIsH/3j0glPCxRxT1u+/GaNyGMI2T40ETFsIINmZ1Vx0qeOZJYp/P6TPJq7
eaSkeq4ffdiDHaU9pYWmT7pqsjkDaWOmfWkjeI5Q+Y+YbOr0Yro1Ju1J6oIF97/O
16KKSgO43Ryf+B3jK32lnIRqpWQN8Tf7hYo79Sv2AcjG1UZAZTJYjBovuRY96C/b
yN6X3jK9y1R526x94yffJ4ZtG1wVhsug4F33SMqMG23xE9J53uv4shvErvoGsYvP
pazlQ96ccQBiqNeKGkhkGRSsNjpP/Yl5vVE/0dNaZeDe1IpFNXxTXPmmsMsuaCsb
WHAwzje9UHaxex3DDkJaZsZS
=gXGc
-----END PGP SIGNATURE-----
