-----BEGIN PGP SIGNATURE-----

iQJPBAABCAA5FiEEII3TbtW7N0WhZ0Okx8b7tbkcEVUFAmp9408bFIAAAAAABAAO
bWFudTIsMi41KzEuMTIsMCwzAAoJEMfG+7W5HBFVhhEP/RSv6mBnuSqd9eMX3Ma5
GfxpTEiAIxINXMofj7UNH2Smm3uPtQim2rOx5kga/XpwmWoticn+9A9+Ng8b6aai
XvkQNgBSvDiMc7M6IPeu5mFSk6Bjc1xTCLnkQlsvUjH7YMDARGvrU0d7XQTYWwpA
ogUK/pSe2GFs3ltC99uZ5QJHzpb3MWQIZBbEwEzKvYk0pbEs2N+wyYdY4FKMYu6u
TpOE5MXhM0NUiHGmHh98WOsXAZYI/c+NHBr063Y6nRoFROfS/8CnjDj3fr3i98Ab
dzwbCLkP5WQFoeFHV0jVAzC5jBU6/xTOCymkvtr3VqMlUGsmmiOqh+H39O05FwMO
dvmT8h/NIWNXq5bfCUKBUgOyFbNMNJHKtGp5SRQPSguDYeQSmckbYPCxQqPbhFGp
/sHkfAZO8ANpcoJiNwuxZ15giZJqKLyCMx8W39hb0g0dq5B1PgHnyx/T2z5A0/nh
hLr5HNL3RNHZz5bs5ZQxcq5GdlF56X7TuDWK/S8HwDvCdhdQUvsthOqaxpr+e7GX
pQTRmCAkxnzsDjAG+XpM19qUE69+vBBsUZh0TrmKo+/vD8rUwa7m/jpdUDGpszUH
4opXtYYmmx7NIybt9hEobH78cPmpJSJQcan6PKJaGlcDbTW12DMtHBuD+0hhMmg3
dBy2MneGPlh20KipMv1fc3LF
=74Ap
-----END PGP SIGNATURE-----
