-----BEGIN PGP SIGNED MESSAGE-----
Hash: SHA512

1227565aeff505b0b0735d91b63109e1e1e44a237c06dc9aa274f2f3bf732af7  ./mise-v2026.9.7-linux-arm64
0e99838cae628b428f84236db29dc6a80edfd90e2dedf81a84d367214300f885  ./mise-v2026.9.7-linux-arm64-musl
85cce4289be0f931609ba2ac179b84875198e948ccb8557a8e842aa15ee117b6  ./mise-v2026.9.7-linux-arm64-musl.tar.gz
cc0d59cb7773ef495288ddab7ac09bb19c63f08ee280b08a59d186f6afbe5afe  ./mise-v2026.9.7-linux-arm64-musl.tar.xz
ddd0fcfe0caebe92886bfc49aa09036a20a2937d91217e689af2c7efd9fba82b  ./mise-v2026.9.7-linux-arm64-musl.tar.zst
d8d38909537af5864822f3ad545d48f1cefae15db266b20052a32da7f834fd50  ./mise-v2026.9.7-linux-arm64.tar.gz
3c43ee044bb7d8bdaea800e1796a0b5d983276384f81d477c059a2b910042e16  ./mise-v2026.9.7-linux-arm64.tar.xz
50b8c05aa29de72a6cd74b43d4e4e0942133c9e22a4cca67b01a5b74a95d543d  ./mise-v2026.9.7-linux-arm64.tar.zst
391c523efcc7ba6b2af0dfe14db2e900ad17438efa534a66e6ca2696c9ba9860  ./mise-v2026.9.7-linux-armv7
fa0da6fa22baf491e6ac84812cd9a1539f30f0838108df90be6dbf24baf47619  ./mise-v2026.9.7-linux-armv7-musl
2b27900a9278eb5f495b2ae3891b1fca04c8de34425338a02ee051a488535af2  ./mise-v2026.9.7-linux-armv7-musl.tar.gz
2548ea17d29e751071749aeb8a47bf189c0a6377e6da85f29d42e1285b39d1a7  ./mise-v2026.9.7-linux-armv7-musl.tar.xz
42004be9a60372fafff308c8a83091cc0d4b36802a6d0861454b60c6c24c37f3  ./mise-v2026.9.7-linux-armv7-musl.tar.zst
a2d9e30b241c83542dbd43c143580630da2040294bec65091467930a05c2a5df  ./mise-v2026.9.7-linux-armv7.tar.gz
58b91646cc1fac7a883de741544afe23d5302378afe553324b6a23d883368768  ./mise-v2026.9.7-linux-armv7.tar.xz
0528c3ee3f1f71ecf9171dce26acf31ff928832121d3a0c507a1d3a08ce0556b  ./mise-v2026.9.7-linux-armv7.tar.zst
d479d7c0df37652ddfd6d1887ef92a67a17effc7ec4ac612f46845099f814c6f  ./mise-v2026.9.7-linux-x64
67265e2efa2874bb956e3348b8c2b3eabf9654d80770f92b9b334d059f583962  ./mise-v2026.9.7-linux-x64-musl
2b95652a7e946be3fc72b729d3e415813eba74c49eb3a13b96d16b213aaf6c60  ./mise-v2026.9.7-linux-x64-musl.tar.gz
c2adb4bc5db777afe30f7ee7d5ed2ebaa1253991cee7645405d7ea04512ca99d  ./mise-v2026.9.7-linux-x64-musl.tar.xz
b04d64e58010c7d00bf522e670b0f0bee5b344a9e241b3a0c0d34a7455690ded  ./mise-v2026.9.7-linux-x64-musl.tar.zst
6cc34785ae10c38061e569b64b290fc8ac26e94d12c3f1aeb721790fa8f09196  ./mise-v2026.9.7-linux-x64.tar.gz
011e71834ef919c775f8d8ba7a985295a39a3ffe322b5f87a61cc0293eb6567f  ./mise-v2026.9.7-linux-x64.tar.xz
dd05b45876047e6e1f22ba92583727fad68eb8d497114123bae1bfc6a2ff7afd  ./mise-v2026.9.7-linux-x64.tar.zst
3c3f377e7123a466274a20f01502ddd8c58f76028907f471c9bc42fbf83846e1  ./mise-v2026.9.7-macos-arm64
f6810aa1609a475ce7f3fdc83eb1e090ace6231d3b1b5aaead944663c4b4b7f1  ./mise-v2026.9.7-macos-arm64.tar.gz
fd6c609f53d72bbae9c89e0050528eafcfcd857038bde59c74d3538e603c1241  ./mise-v2026.9.7-macos-arm64.tar.xz
998d450a288aa093396e6b5d2a2062d263465649b3e29c45efea2a4430094582  ./mise-v2026.9.7-macos-arm64.tar.zst
06f763e37615966f0d660f0fd7d4d23568d1b63d5bdb65e2f7a98af2fdc36075  ./mise-v2026.9.7-macos-x64
98d6fa19fbf6022558ffbbf259800fc7f3dd696fdc950b922d7f3f53e75ef36b  ./mise-v2026.9.7-macos-x64.tar.gz
5993d7bb646eabae1b360e52fbc67d348bf274015a55b24b573234fa32cf890a  ./mise-v2026.9.7-macos-x64.tar.xz
d908bcfd99eba7388033409dd5072886ab171a7bd0f4e8492d345307567c38de  ./mise-v2026.9.7-macos-x64.tar.zst
9c5a6305135875da69e6ddaccca6c309344dee7e20d6ee3d18660cc5f91532a5  ./mise-v2026.9.7-windows-arm64.exe
cbc4b8aa13aae990acf723aa76dc6a7cb23fc17cfe9a3c2abdad60dde974668c  ./mise-v2026.9.7-windows-arm64.zip
80552c6a4a03849707cb6154186a22795516388d06bf0760b4418729a42efe43  ./mise-v2026.9.7-windows-x64.exe
caa1ca158f04d91f42dc2cd99bb1f69f6b5bfa0d0772d485150120aad9778685  ./mise-v2026.9.7-windows-x64.zip
-----BEGIN PGP SIGNATURE-----

iQIzBAEBCgAdFiEEJIU+yfZVzoC0jmw6i4HJ0XQToG0FAmqnMqgACgkQi4HJ0XQT
oG2uvA/8C21cL+GMSJV4TJxiZJ9vOd9ZKpJIbDZD+xHxm8ZWnJkiMSNHonDpKsvA
iTBgZc9qtZG8yuRmIhBY+8jy+0rgMi2bHR1d8zWoWfyMrzlhgg9cOZ2fBwfdq7Mv
amIhRgZeIIB/OzjSO/97tg7rGvuega37wmNKF1alcdnPt5J8iZcBRCMfVe3CoYhI
cMT8nSsOlteYUSpV+Kal4ee8/cD5PtXpMNd3GxziUBA+9k8XqZzYvxP4/0wrENy5
/gcL1WVjCj5oLGfvNzFvv3W3pdY5FpcIg/sfV4/FZB7t5QqVn0gYdEOI8MxjIgcI
/yB7/yAVgCb6Cq77PXwJRmfnb65meip7rv2ISU/W2giDF5jJDuebZZrzvM7zD4aF
qUCQEZD6rF/i+ckdMTanmm/RasgKMe2tfbzwj2BFZW6u6CdwbOqlYPx8cOcZcTbL
51CrTD74RZJw7uBohOaSWyOFPkR2nrZo1TqtfSx//3t2ndPP3cmn4sk6y3y+oIv7
4boyGB5vJtzjKHF2V9qAuVHziqjzVI0F0vQoAIDoSJ0/QtFrwYGWjONWHaYwlawJ
x4Cw/1KaPic4ruDosei37z2DOtLvGu+xtXs+YRM6Iiw2N6NX1SijpxTykXazzequ
/5wap0JJ4N1sJPvf2xCRg1OFuneJnLC8oMU9d7gSCP3ePJxSsAk=
=TgsO
-----END PGP SIGNATURE-----
